static/assets/template/assets/img/icons/essential/detailed/Gold.svg

<svg height="137" viewBox="0 0 149 137" width="149" xmlns="http://www.w3.org/2000/svg"><g fill="none" fill-rule="evenodd" transform="translate(1 2)"><path d="m95.6 71.8h-46.5l6.8-27.8c.4-1.4 1.6-2.4 3.1-2.4h26.6c1.5 0 2.8 1 3.1 2.4z" fill-rule="nonzero"/><path d="m71.6 102.2h-46.5l6.8-27.8c.4-1.4 1.6-2.4 3.1-2.4h26.6c1.5 0 2.8 1 3.1 2.4z" fill-rule="nonzero"/><path d="m121.1 102.2h-46.5l6.8-27.8c.4-1.4 1.6-2.4 3.1-2.4h26.6c1.5 0 2.8 1 3.1 2.4z" fill-rule="nonzero"/><path d="m47.3 132.8h-46.5l6.8-27.8c.4-1.4 1.6-2.4 3.1-2.4h26.6c1.5 0 2.8 1 3.1 2.4z" fill-rule="nonzero"/><path d="m96.9 132.8h-46.5l6.8-27.8c.4-1.4 1.6-2.4 3.1-2.4h26.6c1.5 0 2.8 1 3.1 2.4z" fill-rule="nonzero"/><path d="m145.8 132.8h-46.5l6.8-27.8c.4-1.4 1.6-2.4 3.1-2.4h26.6c1.5 0 2.8 1 3.1 2.4z" fill-rule="nonzero"/><path d="m95.6 71.8h-43.8l6.4-23.8c.3-1.2 1.5-2.1 2.9-2.1h25c1.4 0 2.6.9 2.9 2.1z" fill-rule="nonzero"/><path d="m71.6 102.2h-43.1l6.3-24.2c.3-1.2 1.5-2.1 2.9-2.1h24.6c1.4 0 2.6.9 2.9 2.1z" fill-rule="nonzero"/><path d="m121.1 102.2h-44l6.5-23.9c.3-1.2 1.6-2.1 3-2.1h25.2c1.4 0 2.6.9 3 2.1z" fill-rule="nonzero"/><path d="m47.6 132.8h-44l6.5-24.1c.3-1.2 1.6-2.1 3-2.1h25.2c1.4 0 2.6.9 3 2.1z" fill-rule="nonzero"/><path d="m97.5 132.8h-44l6.5-24.1c.3-1.2 1.6-2.1 3-2.1h25c1.4 0 2.6.9 3 2.1z" fill-rule="nonzero"/><path d="m145.8 132.8h-44l6.5-24.3c.3-1.3 1.6-2.1 3-2.1h25.2c1.4 0 2.6.9 3 2.1z" fill-rule="nonzero"/><g stroke-linecap="round" stroke-linejoin="round" stroke-width="3"><path d="m65.2 41.5h.9"/><path d="m71 41.5h14.6c1.5 0 2.8 1 3.1 2.4l6.8 27.8h-46.5l6.8-27.8c.4-1.4 1.6-2.4 3.1-2.4h1.2"/><path d="m71.6 102.2h-46.5l6.8-27.8c.4-1.4 1.6-2.4 3.1-2.4h26.6c1.5 0 2.8 1 3.1 2.4z"/><path d="m121.1 102.2h-46.5l6.8-27.8c.4-1.4 1.6-2.4 3.1-2.4h26.6c1.5 0 2.8 1 3.1 2.4z"/><path d="m5.5 113.7 2.2-8.8c.4-1.4 1.6-2.4 3.1-2.4h26.6c1.5 0 2.8 1 3.1 2.4l6.8 27.8h-46.5l3-12.4"/><path d="m96.9 132.8h-46.5l6.8-27.8c.4-1.4 1.6-2.4 3.1-2.4h26.6c1.5 0 2.8 1 3.1 2.4z"/><path d="m145.8 132.8h-46.5l6.8-27.8c.4-1.4 1.6-2.4 3.1-2.4h26.6c1.5 0 2.8 1 3.1 2.4z"/><path d="m127.1 51.8 17.5-11"/><path d="m111.8 15.6 2.6-4.5"/><path d="m104 29 4.8-8.3"/><path d="m19 51.8-17.6-11"/><path d="m32.4 12.5-.8-1.4"/><path d="m42 29-6.3-10.9"/><path d="m73.3 21.2v-21.1"/></g></g></svg>

<?xml version="1.0" encoding="UTF-8"?>
<svg width="149px" height="137px" viewBox="0 0 149 137" version="1.1" xmlns="http://www.w3.org/2000/svg" xmlns:xlink="http://www.w3.org/1999/xlink">
    <!-- Generator: Sketch 51.2 (57519) - http://www.bohemiancoding.com/sketch -->
    <title>Gold</title>
    <desc>Created with Sketch.</desc>
    <defs></defs>
    <g id="Page-1" stroke="none" stroke-width="1" fill="none" fill-rule="evenodd">
        <g id="Gold" transform="translate(1.000000, 2.000000)">
            <path d="M95.6,71.8 L49.1,71.8 L55.9,44 C56.3,42.6 57.5,41.6 59,41.6 L85.6,41.6 C87.1,41.6 88.4,42.6 88.7,44 L95.6,71.8 Z" id="Shape" class="fill-neutral" fill-rule="nonzero"></path>
            <path d="M71.6,102.2 L25.1,102.2 L31.9,74.4 C32.3,73 33.5,72 35,72 L61.6,72 C63.1,72 64.4,73 64.7,74.4 L71.6,102.2 Z" id="Shape" class="fill-neutral" fill-rule="nonzero"></path>
            <path d="M121.1,102.2 L74.6,102.2 L81.4,74.4 C81.8,73 83,72 84.5,72 L111.1,72 C112.6,72 113.9,73 114.2,74.4 L121.1,102.2 Z" id="Shape" class="fill-neutral" fill-rule="nonzero"></path>
            <path d="M47.3,132.8 L0.8,132.8 L7.6,105 C8,103.6 9.2,102.6 10.7,102.6 L37.3,102.6 C38.8,102.6 40.1,103.6 40.4,105 L47.3,132.8 Z" id="Shape" class="fill-neutral" fill-rule="nonzero"></path>
            <path d="M96.9,132.8 L50.4,132.8 L57.2,105 C57.6,103.6 58.8,102.6 60.3,102.6 L86.9,102.6 C88.4,102.6 89.7,103.6 90,105 L96.9,132.8 Z" id="Shape" class="fill-neutral" fill-rule="nonzero"></path>
            <path d="M145.8,132.8 L99.3,132.8 L106.1,105 C106.5,103.6 107.7,102.6 109.2,102.6 L135.8,102.6 C137.3,102.6 138.6,103.6 138.9,105 L145.8,132.8 Z" id="Shape" class="fill-neutral" fill-rule="nonzero"></path>
            <path d="M95.6,71.8 L51.8,71.8 L58.2,48 C58.5,46.8 59.7,45.9 61.1,45.9 L86.1,45.9 C87.5,45.9 88.7,46.8 89,48 L95.6,71.8 Z" id="Shape" class="fill-primary-300" fill-rule="nonzero"></path>
            <path d="M71.6,102.2 L28.5,102.2 L34.8,78 C35.1,76.8 36.3,75.9 37.7,75.9 L62.3,75.9 C63.7,75.9 64.9,76.8 65.2,78 L71.6,102.2 Z" id="Shape" class="fill-primary-300" fill-rule="nonzero"></path>
            <path d="M121.1,102.2 L77.1,102.2 L83.6,78.3 C83.9,77.1 85.2,76.2 86.6,76.2 L111.8,76.2 C113.2,76.2 114.4,77.1 114.8,78.3 L121.1,102.2 Z" id="Shape" class="fill-primary-300" fill-rule="nonzero"></path>
            <path d="M47.6,132.8 L3.6,132.8 L10.1,108.7 C10.4,107.5 11.7,106.6 13.1,106.6 L38.3,106.6 C39.7,106.6 40.9,107.5 41.3,108.7 L47.6,132.8 Z" id="Shape" class="fill-primary-300" fill-rule="nonzero"></path>
            <path d="M97.5,132.8 L53.5,132.8 L60,108.7 C60.3,107.5 61.6,106.6 63,106.6 L88,106.6 C89.4,106.6 90.6,107.5 91,108.7 L97.5,132.8 Z" id="Shape" class="fill-primary-300" fill-rule="nonzero"></path>
            <path d="M145.8,132.8 L101.8,132.8 L108.3,108.5 C108.6,107.2 109.9,106.4 111.3,106.4 L136.5,106.4 C137.9,106.4 139.1,107.3 139.5,108.5 L145.8,132.8 Z" id="Shape" class="fill-primary-300" fill-rule="nonzero"></path>
            <path d="M65.2,41.5 L66.1,41.5" id="Shape" class="stroke-primary" stroke-width="3" stroke-linecap="round" stroke-linejoin="round"></path>
            <path d="M71,41.5 L85.6,41.5 C87.1,41.5 88.4,42.5 88.7,43.9 L95.5,71.7 L49,71.7 L55.8,43.9 C56.2,42.5 57.4,41.5 58.9,41.5 L60.1,41.5" id="Shape" class="stroke-primary" stroke-width="3" stroke-linecap="round" stroke-linejoin="round"></path>
            <path d="M71.6,102.2 L25.1,102.2 L31.9,74.4 C32.3,73 33.5,72 35,72 L61.6,72 C63.1,72 64.4,73 64.7,74.4 L71.6,102.2 Z" id="Shape" class="stroke-primary" stroke-width="3" stroke-linecap="round" stroke-linejoin="round"></path>
            <path d="M121.1,102.2 L74.6,102.2 L81.4,74.4 C81.8,73 83,72 84.5,72 L111.1,72 C112.6,72 113.9,73 114.2,74.4 L121.1,102.2 Z" id="Shape" class="stroke-primary" stroke-width="3" stroke-linecap="round" stroke-linejoin="round"></path>
            <path d="M5.5,113.7 L7.7,104.9 C8.1,103.5 9.3,102.5 10.8,102.5 L37.4,102.5 C38.9,102.5 40.2,103.5 40.5,104.9 L47.3,132.7 L0.8,132.7 L3.8,120.3" id="Shape" class="stroke-primary" stroke-width="3" stroke-linecap="round" stroke-linejoin="round"></path>
            <path d="M96.9,132.8 L50.4,132.8 L57.2,105 C57.6,103.6 58.8,102.6 60.3,102.6 L86.9,102.6 C88.4,102.6 89.7,103.6 90,105 L96.9,132.8 Z" id="Shape" class="stroke-primary" stroke-width="3" stroke-linecap="round" stroke-linejoin="round"></path>
            <path d="M145.8,132.8 L99.3,132.8 L106.1,105 C106.5,103.6 107.7,102.6 109.2,102.6 L135.8,102.6 C137.3,102.6 138.6,103.6 138.9,105 L145.8,132.8 Z" id="Shape" class="stroke-primary" stroke-width="3" stroke-linecap="round" stroke-linejoin="round"></path>
            <path d="M127.1,51.8 L144.6,40.8" id="Shape" class="stroke-primary" stroke-width="3" stroke-linecap="round" stroke-linejoin="round"></path>
            <path d="M111.8,15.6 L114.4,11.1" id="Shape" class="stroke-primary" stroke-width="3" stroke-linecap="round" stroke-linejoin="round"></path>
            <path d="M104,29 L108.8,20.7" id="Shape" class="stroke-primary" stroke-width="3" stroke-linecap="round" stroke-linejoin="round"></path>
            <path d="M19,51.8 L1.4,40.8" id="Shape" class="stroke-primary" stroke-width="3" stroke-linecap="round" stroke-linejoin="round"></path>
            <path d="M32.4,12.5 L31.6,11.1" id="Shape" class="stroke-primary" stroke-width="3" stroke-linecap="round" stroke-linejoin="round"></path>
            <path d="M42,29 L35.7,18.1" id="Shape" class="stroke-primary" stroke-width="3" stroke-linecap="round" stroke-linejoin="round"></path>
            <path d="M73.3,21.2 L73.3,0.1" id="Shape" class="stroke-primary" stroke-width="3" stroke-linecap="round" stroke-linejoin="round"></path>
        </g>
    </g>
</svg>
